X: 40574
T: Tommy Tully's
R: waltz
M: 3/4
K: Dmajor
|:D2 DE GA|B2 BG cB|BA A4|A4 A2|
D2 DE FG|A2 AB cd|B4 B2|B6|
D2 DE GA|B2 BG cB|BA A4|A6|
D2 DE FG|A2 AB GF|G4 G2|G4 D2:|
|:B2 BD AD|G2 GD FG|FE E4|E4 E2|
c2 cE BD|A2 AF GA|D4 D2|D4 D2|
d2 dB cA|B2 BF GA|FE E4|E4 E2|
D2 DE FG|A2 AB GF|G4 G2|G6:|

